X:48
T:Kid On The Mountain, The
S:The Session: https://thesession.org/tunes/52#setting47539
C:Traditional
R:slip jig
K:Em
M:9/8
L:1/8
Q:1/4=113
|:"Em"E3 FEF G2F|"Em"E3 BcA BGD|"Em"E3 FEF G2A|"G"BAG "D"FAG FED:|
|:"G"BGB "D"AFA "G"G2D|"G"GAB dge dBA|"G"BGB "D"AFA "G"G2A|"G"BAG "D"FAG FED:|
|:"Em"g3 eBe e2f|"Em"g3 efg "D"afd|"Em"g3 eBe ega|"C"bag fag "D"fed:|
|:"Em"eBB e2f g2f|"Em"eBB efg "D"afd|"Em"eBB e2f g2a|"C"bag fag "D"fed:|
|:"G"edB "D"dBA "G"G2D|"G"GAB dge "D"dBd|"G"edB "D"dBA "G"G2A|"G"BAG "D"FAG FED:|

